icons-common/NFC.svg

<svg height="1em" width="auto" viewBox="0 0 105 105" fill="currentColor" xmlns="http://www.w3.org/2000/svg">
    <path d="M61.2741 61.8972C63.8329 54.8943 63.8329 49.3279 61.2741 42.3251C60.0156 39.7663 62.994 36.9831 65.1753 38.5992C73.6069 44.3002 73.6069 59.922 65.1753 65.6231C62.952 67.284 60.0156 64.411 61.2741 61.8972Z"
          />
    <path d="M70.0413 71.1442C77.2984 59.2034 77.2984 44.9732 70.0413 33.0324C68.3214 30.4737 71.6353 27.2416 73.8586 29.2168C87.0724 39.8108 87.0724 64.4107 73.8586 75.0047C71.5934 76.9799 68.3634 73.7029 70.0413 71.1891V71.1442Z"
          />
    <path d="M44.243 42.2794C41.6842 49.2823 41.6842 54.8487 44.243 61.8515C45.5015 64.4103 42.5231 67.1935 40.3418 65.5774C31.9102 59.8764 31.9102 44.2546 40.3418 38.5536C42.5651 36.8926 45.5015 39.7656 44.243 42.2794Z"
          />
    <path d="M35.5177 33.0324C28.2606 44.9732 28.2606 59.2033 35.5177 71.1441C37.2376 73.7029 33.9237 76.935 31.7004 74.9598C18.4866 64.3657 18.4866 39.7659 31.7004 29.1718C33.9656 27.1967 37.1957 30.4736 35.5177 32.9875V33.0324Z"
          />
    <path d="M48.186 52.0659C48.186 51.0783 48.4377 50.1356 48.9411 49.3725C49.4445 48.5645 50.1576 47.936 50.9966 47.5769C51.8356 47.2178 52.7584 47.128 53.6394 47.3076C54.5203 47.4871 55.3173 47.9809 55.9885 48.6543C56.6177 49.3276 57.0791 50.2254 57.2469 51.1681C57.4147 52.1108 57.3308 53.0984 56.9952 53.9962C56.6596 54.894 56.0724 55.6571 55.3173 56.1958C54.5622 56.7345 53.6813 57.0038 52.8004 57.0038C51.5839 57.0038 50.4093 56.51 49.5703 55.5673C48.7314 54.6695 48.228 53.4126 48.228 52.1108L48.186 52.0659Z"
          />
</svg>

<svg xmlns="http://www.w3.org/2000/svg" width="auto" height="1em" fill="currentColor" viewBox="0 0 105 105">
    <path d="M61.274 61.897c2.559-7.003 2.559-12.57 0-19.572-1.258-2.559 1.72-5.342 3.901-3.726 8.432 5.701 8.432 21.323 0 27.024-2.223 1.661-5.16-1.212-3.9-3.726"/>
    <path d="M70.041 71.144c7.257-11.94 7.257-26.17 0-38.112-1.72-2.558 1.594-5.79 3.818-3.815 13.213 10.594 13.213 35.194 0 45.788-2.266 1.975-5.496-1.302-3.818-3.816zM44.243 42.28c-2.559 7.002-2.559 12.569 0 19.572 1.258 2.558-1.72 5.342-3.901 3.725-8.432-5.7-8.432-21.322 0-27.023 2.223-1.661 5.16 1.212 3.901 3.725"/>
    <path d="M35.518 33.032c-7.257 11.941-7.257 26.171 0 38.112 1.72 2.559-1.594 5.791-3.818 3.816-13.213-10.594-13.213-35.194 0-45.788 2.266-1.975 5.496 1.302 3.818 3.815zm12.668 19.034c0-.988.252-1.93.755-2.693a4.55 4.55 0 0 1 2.056-1.796 4.46 4.46 0 0 1 2.642-.27c.881.18 1.678.674 2.35 1.347a5.04 5.04 0 0 1 1.258 2.514c.168.943.084 1.93-.252 2.828a4.73 4.73 0 0 1-1.678 2.2 4.33 4.33 0 0 1-2.517.808 4.3 4.3 0 0 1-3.23-1.437c-.839-.898-1.342-2.154-1.342-3.456z"/>
</svg>
